src/main/resources/icons/JavaUltimateIcons/icons/jsf/general.svg

<svg xmlns="http://www.w3.org/2000/svg" width="16" height="16" viewBox="0 0 16 16">
  <g fill="none" fill-rule="evenodd">
    <rect width="7" height="7" x="2" y="7" fill="#40B6E0" fill-opacity=".6"/>
    <path fill="#9AA7B0" d="M11.9939,3.8005 L11.9939,7.0005 C11.9939,7.5515 11.5459,8.0005 10.9939,8.0005 L9.9939,8.0005 L9.9939,9.0005 L10.9939,9.0005 C12.0939,9.0005 12.9939,8.1005 12.9939,7.0005 L12.9939,3.8005 L11.9939,3.8005 Z"/>
    <path fill="#9AA7B0" d="M12.5066,1.6001 C12.0096,1.6001 11.6066,2.0031 11.6066,2.5001 C11.6066,2.9971 12.0096,3.4011 12.5066,3.4011 C13.0036,3.4011 13.4056,2.9971 13.4056,2.5001 C13.4056,2.0031 13.0036,1.6001 12.5066,1.6001 M14.0066,2.5001 C14.0066,3.3291 13.3346,4.0001 12.5066,4.0001 C11.6776,4.0001 11.0066,3.3291 11.0066,2.5001 C11.0066,1.6711 11.6776,1.0001 12.5066,1.0001 C13.3346,1.0001 14.0066,1.6711 14.0066,2.5001"/>
    <polygon fill="#40B6E0" points="1 7 10 7 10 6 1 6"/>
    <path fill="#9AA7B0" d="M15.2439 2.5083C15.2439 3.6123 14.5929 4.5593 13.6589 5.0003L14.9579 5.0003C15.5969 4.3633 15.9939 3.4833 15.9939 2.5083 15.9939 1.5243 15.5869.6373 14.9369.0003L13.6249.0003C14.5759.4333 15.2439 1.3923 15.2439 2.5083M9.7556 2.5112C9.7556 1.3942 10.4226.4342 11.3746.0002L10.0646.0002C9.4126.6382 9.0056 1.5252 9.0056 2.5102 9.0066 3.4852 9.4026 4.3652 10.0416 5.0002L11.3416 5.0002C10.4086 4.5592 9.7566 3.6132 9.7556 2.5112"/>
    <polygon fill="#40B6E0" points="1 15 10 15 10 14 1 14"/>
    <polygon fill="#40B6E0" points="1 13 10 13 10 12 1 12"/>
    <polygon fill="#40B6E0" points="1 11 10 11 10 10 1 10"/>
    <polygon fill="#40B6E0" points="1 9 10 9 10 8 1 8"/>
  </g>
</svg>

<svg xmlns="http://www.w3.org/2000/svg" width="16" height="16" viewBox="0 0 16 16"><rect id="frame" width="16" height="16" fill="none"/><g fill="none" fill-rule="evenodd"><path fill="#40B6E0" fill-opacity=".6" d="M2 7h7v7H2z"/><path fill="#9AA7B0" d="M11.994 3.8V7c0 .551-.448 1-1 1h-1v1h1c1.1 0 2-.9 2-2V3.8h-1z"/><path fill="#9AA7B0" d="M12.507 1.6a.9.9 0 1 0 0 1.8.9.9 0 0 0 0-1.8m1.5.9a1.5 1.5 0 1 1-3 0 1.5 1.5 0 0 1 3 0"/><path fill="#40B6E0" d="M1 7h9V6H1z"/><path fill="#9AA7B0" d="M15.244 2.508A2.756 2.756 0 0 1 13.659 5h1.299a3.507 3.507 0 0 0-.021-5h-1.312a2.759 2.759 0 0 1 1.619 2.508m-5.488.003c0-1.117.667-2.077 1.619-2.51h-1.31a3.5 3.5 0 0 0-1.06 2.51A3.503 3.503 0 0 0 10.043 5h1.3a2.758 2.758 0 0 1-1.586-2.49"/><path fill="#40B6E0" d="M1 15h9v-1H1z"/><path fill="#40B6E0" d="M1 13h9v-1H1z"/><path fill="#40B6E0" d="M1 11h9v-1H1z"/><path fill="#40B6E0" d="M1 9h9V8H1z"/></g></svg>
